!!!!SEGMENT: pl-kk--kk-i-338--004_gorczycki-grzegorz-gerwazy--tristes-erant-apostoli.krn
!!!cenid: 17xx:1941
!!!COM: Gorczycki, Grzegorz Gerwazy
!!!COM-rismid: pe30009207
!!!CDT: ~1666-1734/04/30
!!!CNT: Polish
!!!OTL: Tristes erant apostoli
!!!PDT:
!!!AGN: Sacred
!!!SMS-siglum: PL-Kk
!!!SMS-shelfmark: Kk.I.338
!!!SMS-shelfwork: 004 W
!!!SMS-variant:
!!!SMS-altvar:
!!!NIFC-rismid: 1001143669
!!!URL-scan: http://repozytorium.nifc.pl/skany/pl-kk-nut--i-338
!!!ONB-nifc: UWAGA: utwory w zbiorze: 1. Deus tuorum militum, 2. Rex gloriose martyrum, 3. Invicte Martyr unicum, 4. Tristes erant apostoli
**kern	**text
*Ibass	*
*I"Basso Rypieno.	*
*I'B.r.	*
*clefF4	*
*k[]	*
*d:	*
*M3/2	*
=1	=1
*2\right	*
(2D\	Tri-
2F\)	.
2D\	-ſtes
=2	=2
2D\	e-
!LO:TX:a:t=P:problem:oddech jako rozdzielacz tekstu:global	!
2D,<\	-rant
2C/	a-
=3-	=3
1BB-X	-po-
2BB-/	-sto-
=4	=4
1AA,<	-li
2FF/	de
=5	=5
2BB-X/	x-
2.BB-/	-ti
4BB-/	a-
=6	=6
1C	-cer-
2AA/	-bo
=7	=7
2AA/	Fu-
2.C/	-ne-
4C/	-re
=8-	=8
1.F	.
=9	=9
2F\	quem
2F\	mor-
(4C/	-te
4D/)	.
=10	=10
2.E\	cru-
4D\	.
4C/	.
4BB/	.
=11-	=11
2AA/	-de-
2E\	-liſ-
2E\	-si-
=12-	=12
1.AA	-ma
!LO:LB:g=original	!
=13	=13
2AA/	Ser-
2C/	-vi
(4BB-X/	ne-
4AA/)	.
=14-	=14
1GG	-ca-
2GG,</	-rant
=15	=15
*	*ij
2GG/	Ser-
2BB-X/	-vi
(4AA/	ne-
4GG/)	.
=16	=16
2FF/	-ca-
(2F\	-rant
*	*Xij
2G\)	.
=17	=17
2A\	Ser-
2A,<\	-vi
2D\	ne-
=18-	=18
1A	-ca-
1D	-rant
=19-	=19
.	.
2.E\	Im-
4E\	-pi-
=20-	=20
0.AA;	-j:
=21-	=21
.	.
=22||	=22||
*M3/2	*
2D\	Ad
!LO:TX:a:t=P:problem:# above	!
2D#X\	an-
2D#\	-xi-
=23-	=23
1G	-os
2C#X/	.
=24	=24
4D/	a-
4C/	.
4E/	.
!LO:N:vis=2.	!
2BB/	-po-
4BB/	-ſto-
!LO:LB:g=original	!
=25	=25
1AA,<	-los
2F\	Cur-
=26	=26
2BB-X,</	-runt
2BB-/	.
2C/	sta-
=27	=27
(2.D\	-tim
4E\)	.
2F\	dum
=28	=28
2AA/	.
2.C/	Nun-
4C/	-ti-
=29-	=29
1F,<	-ae
2F\	Il-
=30	=30
1C#X	-lae
2C#/	mi-
=31	=31
2.D/	-can-
4C/	.
!LO:TX:a:t=P:problem:♭ above	!
2BB-X/	-tis
=32	=32
2.AA/	ob-
4AA/	-vi-
2AA/	-a
=33	=33
2C/	x-
2.BB-X/	-ti
4AA/	.
=34	=34
1GG	te-
2GG/	-nent
!LO:LB:g=original	!
=35	=35
2D\	x-
2.F\	-ti
4E\	.
=36	=36
(2.D\	te-
4E\)	.
2F\	-nent
=37	=37
4C/	ves-
4D/	.
2.E\	-ti-
4E\	-gi-
=38-	=38
1.AA	-a
=39	=39
2D\	x-
2.AA/	-ti
4BB/	.
=40-	=40
1C	te-
2C,</	-nent
=41	=41
*	*ij
2GG/	x-
(2.BB-X/	-ti
4C/)	.
=42-	=42
2D\	te-
2D,<\	.-nent
*	*Xij
2F#X\	te-
=43	=43
2G\	-nent
4GG/	ves-
4AA/	.
!LO:TX:a:t=P:problem:♭ above	!
2BB-X/	.
=44-	=44
2GG/	-ti-
2AA/	.
2AA/	-gi-
=45	=45
1.D;	-a
!LO:LB:g=original	!
=46||	=46||
*M3/2	*
2r	.
2D\	Ga-
!LO:TX:a:t=P:problem:# above	!
2D#X\	-li-
=47	=47
2G\	-le-
2G,<\	-ae
2F\	ad
=48	=48
1En	al-
2D\	-ta
=49	=49
2.A\	mon-
4A\	-ti-
2A\	-um
=50	=50
2F\	se
2F\	con-
2E\	-fe-
=51	=51
2.F\	-runt
4G\	.
2A\	a-
=52	=52
2E\	-po-
2.G\	-sto-
4GG/	.
=53-	=53
1.C	-li
=54	=54
2c\	Je-
2B-X\	-su-
2A\	-que
=55-	=55
1G	vo-
2G\	-ti
!LO:LB:g=original	!
=56	=56
2G\	Je-
2F\	-su-
2E\	-q(ue)
=57	=57
1D	Vo-
2D\	-ti
=58-	=58
2GG/	com-
2.C/	.
4C/	-po-
=59	=59
1F,<	-tes
2F\	al-
=60-	=60
2.C/	-mo
4D\	.
(4E\	be-
4F\)	.
=61	=61
2G\	-an-
2G,<\	-t(ur)
*	*ij
2G\	al-
=62	=62
2.D\	-mo
4E\	.
(4F\	be-
4G\)	.
=63	=63
2A\	-an-
2A,<\	-t(ur)
*	*Xij
2F\	be-
=64	=64
2.G\	-an-
4F\	.
2E\	.
=65-	=65
2D,<\	-tur
2A\	Lu-
2AA/	-mi-
=66-	=66
1.D	-ne
!LO:LB:g=original	!
=67||-	=67||-
*M3/2	*
2D/	Ut
2D/	sis
2C#X/	pe-
=68	=68
2D\	-ren-
1G#X	-ne
=69	=69
2.A\	men-
4A\	-ti-
2A\	-bu(s)
=70	=70
2F\	Pas-
2E\	-cha-
2E\	-le
=71	=71
2.F\	Je-
4E\	.
2D\	-su
=72	=72
2AA/	gau-
2.C/	.
4C/	-di-
=73-	=73
1.F	-um!
=74	=74
2E\	a
2E\	mor-
2E\	-te
=75-	=75
1D	di-
2D\	-ra,
=76	=76
2C#X/	a-
2C#/	-mor-
2C#/	-te
!LO:LB:g=original	!
=77-	=77
1D	di-
2D\	-ra
=78	=78
*	*ij
(4D\	di-
4C\	.
4D\	.
4E\)	.
2F\	.
=79-	=79
2C,</	-ra
*	*Xij
2.E\	Cri-
4E\	-mi-
=80-	=80
1AA,<	-num
2F\	vi-
=81	=81
2.F\	-ta
4A\	re-
[<2E\	-na-
=82	=82
2.E\]	.
4G\	.
[<2D\	.
=83	=83
2.D\]	.
4F\	.
4C\	.
4D\	.
=84	=84
4E\	.
4F\	.
2.G\	.
8F\L	.
8E\J	.
=85-	=85
2D/	.
4C/	.
8BB/L	.
8AA/J	.
2GG/	.
=86	=86
2D,<\	-tos
2A\	li-
2AA/	-be-
=87-	=87
1.D	-ra
=88||	=88||
!LO:TX:a:t=P:problem:♭ above	!
1.G-X	A-
=89-	=89
0.D	-men
=90-	=90
.	.
==	==
*-	*-
!!!RDF**kern: < = below
!!!ENC: Marta Lawrence
!!!END: 2021-02-22
!!!ENC: Andrzej Gręziak
!!!END: 2021-02-04
